images/cart.svg

<svg width="16" height="17" fill="none" xmlns="http://www.w3.org/2000/svg"><path fill-rule="evenodd" clip-rule="evenodd" d="M1.16667 2.10794c-.3682 0-.66667.29848-.66667.66667 0 .36819.29848.66666.66667.66666h1.77127l.46743 2.33539a.66396.66396 0 0 0 .01063.0531l.96738 4.83334.00012.0006c.08356.42.31212.7972.64571 1.0658.3319.2672.74674.4098 1.17262.4033h5.62067c.4259.0065.8408-.1361 1.1727-.4033.3337-.2687.5623-.6462.6458-1.0664l.001-.005.9271-4.86144a.6669.6669 0 0 0-.1412-.54985.66677.66677 0 0 0-.5137-.2417H4.61072L4.1381 2.64377c-.06236-.31157-.33595-.53583-.6537-.53583H1.16667Zm4.52431 8.29446-.81339-4.06396h8.23081l-.7756 4.06686a.49276.49276 0 0 1-.1737.2856.49257.49257 0 0 1-.3181.1087v-.0002H6.19614v-.0001l-.01277.0003a.49245.49245 0 0 1-.31807-.1087.4926.4926 0 0 1-.17413-.2876l-.00019-.0009Zm-1.13359 3.961c0-.688.55771-1.2457 1.24568-1.2457.68798 0 1.24569.5577 1.24569 1.2457 0 .6879-.55771 1.2457-1.24569 1.2457-.68797 0-1.24568-.5578-1.24568-1.2457Zm6.37331 0c0-.688.5577-1.2457 1.2457-1.2457.688 0 1.2457.5577 1.2457 1.2457 0 .6879-.5577 1.2457-1.2457 1.2457-.688 0-1.2457-.5578-1.2457-1.2457Z" fill="#2D3440"/></svg>

<svg width="16" height="17" viewBox="0 0 16 17" fill="none" xmlns="http://www.w3.org/2000/svg">
<path fill-rule="evenodd" clip-rule="evenodd" d="M1.16667 2.10794C0.798477 2.10794 0.5 2.40642 0.5 2.77461C0.5 3.1428 0.798477 3.44127 1.16667 3.44127H2.93794L3.40537 5.77666C3.40821 5.79461 3.41176 5.81232 3.416 5.82976L4.38338 10.6631L4.3835 10.6637C4.46706 11.0837 4.69562 11.4609 5.02921 11.7295C5.36111 11.9967 5.77595 12.1393 6.20183 12.1328H11.8225C12.2484 12.1393 12.6633 11.9967 12.9952 11.7295C13.3289 11.4608 13.5575 11.0833 13.641 10.6631L13.641 10.6631L13.642 10.6581L14.5691 5.79666C14.6063 5.60149 14.5545 5.39989 14.4279 5.24681C14.3012 5.09372 14.1129 5.00511 13.9142 5.00511H4.61072L4.1381 2.64377C4.07574 2.3322 3.80215 2.10794 3.4844 2.10794H1.16667ZM5.69098 10.4024L4.87759 6.33844H13.1084L12.3328 10.4053C12.31 10.5178 12.2485 10.6188 12.1591 10.6909C12.0691 10.7633 11.9565 10.8018 11.841 10.7996L11.841 10.7994H11.8282H6.19614V10.7993L6.18337 10.7996C6.06787 10.8018 5.95528 10.7633 5.8653 10.6909C5.77531 10.6184 5.71368 10.5166 5.69117 10.4033L5.69098 10.4024ZM4.55739 14.3634C4.55739 13.6754 5.1151 13.1177 5.80307 13.1177C6.49105 13.1177 7.04876 13.6754 7.04876 14.3634C7.04876 15.0513 6.49105 15.6091 5.80307 15.6091C5.1151 15.6091 4.55739 15.0513 4.55739 14.3634ZM10.9307 14.3634C10.9307 13.6754 11.4884 13.1177 12.1764 13.1177C12.8644 13.1177 13.4221 13.6754 13.4221 14.3634C13.4221 15.0513 12.8644 15.6091 12.1764 15.6091C11.4884 15.6091 10.9307 15.0513 10.9307 14.3634Z" fill="#2D3440"/>
</svg>
